X: 0611
T: Mrs McLeod - 8x32R
P: Mrs McLeod of Raasay
C: Neil Gow
B: RSCDS 6-11
R: reel
Z: 2011 John Chambers <jc:trillian.mit.edu>
M: C|
L: 1/8
K: A
c/B/ |\
"A"A2a2 f>e fa | "A"ec c>A "C#7"c2 cB | "F#m"A2a2 "D"f>e fa | "C#/A"ecBA "E7"B2Bc |
"A"A2a2 f>e fa | "A"ec c>A "C#/A"c2ce | "D"fgfe f2 (3efg | "A"a2ec "E7"B2 B>c ||
"A"A2cA "E7"eccf | "A"ec c>B "E7"c2ca | "A"A2cA ec"FEm"cf | "Bm"cB B>A "E7"B2Bc |
"A"A2cA "E7"eccf | "A"ec c>B "C#m"c2ce | "D"fgfe f2 "C#m"(3efg \
|1 "F#m"a2ec "E7"B2 B :|2 "F#m"a2ec "E7"B2 "A"A2 |]
